X:1
T:Pavanne No. 11, Guilliame Morlaye (Premier Livre de Guiterne)
T:Pavanne (Premier Livre de Guiterne No. 11)
T:Guilliame Morayle
%%score ( 1 2 ) ( 3 4 )
L:1/8
M:4/4
K:Bb
V:1 treble nm="Ukulele" snm="Uk."
V:2 treble 
V:3 tab stafflines=4 strings=G4,C4,E4,A4 nm="Ukulele" snm="Uk."
V:4 tab stafflines=4 strings=G4,C4,E4,A4 
V:1
 [ce]3 d e2 f2 | [ce]2 de fe f/e/d/c/ | [Bd]3 A B2 c2 | [Bd]2 f2 [ce]2 [Bd]2 | [ce]3 d c2 =B2 | %5
 z d ed f=e dc | [=Bd]c BA BA Bc | [=Bd]2 [ce]2 [ce]2 [Bd]2 | [ce]d ef gf ed | [ce]g fe dc de | %10
 [Bd]A Bc dc BA | [Bd]A Bc de fd | z [ce] fe dc =BA | z [cd] =BA [cd]2 [Bd]2 | [c=e]2 [ce]6 | %15
 [c=e]4 [ce]4 | [ce]d c=B cd ef- | fg ab ag fe | [Bd]A B/A/B/c/ dc d/c/B/A/ | [Bd]A GA [Bd]2 AB | %20
 [ce]2 c=B cd ef | fg _ag z e dc | [=Bd]c BA [Bd]A B/A/B/c/ | [=Bd]2 [ce]2 [ce]2 [Bd]2 | %24
 de fg f=e d[c_e] |[M:7/8] d cd ec de |[M:4/4] [Bd]e fe [Bd]c BA | [Bd]A Bc de fd | %28
 z e f/e/d/e/ fe f/e/d/c/ | z [cd] =BA [cd]B c/B/A/B/ | [c=e]2 [ce]2 G4 | [CGc=e]8 |] %32
V:2
 [CG]8 | [CG]8 | [DF]8 | [DF]8 | [CG]8 | C4 [FA]4 | G8 | G4 C2 G2 | [CG]8 | [CG]8 | [DF]8 | [DF]8 | %12
 C8 | G4 G2 G2 | [CG]4 G2 C2 | [CG]4 G2 C2 | [CG]8 | C4 C4 | F8 | F2 z2 FG x2 | [CG]8 | C4 F4 | %22
 G4 G4 | G4 C2 G2 | [CG]7 [CG]- |[M:7/8] [CG]4- [CG]3 |[M:4/4] [DF]4 [DF]4 | [DF]8 | C8 | G4 G4 | %30
 C6 C2 | x8 |] %32
V:3
 [!2!G!1!e]3 !1!d !1!e2 !1!f2 | [!2!G!1!e]2 !1!d!1!e !1!f!1!e !1!f/!1!e/!1!d/!1!c/ | %2
 [!4!B!1!d]3 !1!A !1!B2 !1!c2 | [!4!B!1!d]2 !1!f2 [!4!c!1!e]2 [!4!B!1!d]2 | %4
 [!2!G!1!e]3 !1!d !1!c2 !1!=B2 | x !1!d !1!e!1!d !1!f!1!=e !1!d!1!c | %6
 [!2!=B!1!d]!1!c !1!B!1!A !1!_c!1!A !1!B!1!=c | [!2!=B!1!d]2 [!2!c!1!e]2 [!2!c!1!e]2 [!2!B!1!d]2 | %8
 [!2!G!1!e]!1!d !1!e!1!f !1!g!1!f !1!e!1!d | [!2!G!1!e]!1!g !1!f!1!e !1!d!1!c !1!d!1!e | %10
 [!2!F!1!d]!1!A !1!B!1!c !1!d!1!c !1!B!1!A | [!4!B!1!d]!1!A !1!B!1!c !1!d!1!e !1!f!1!d | %12
 x [!2!G!1!e] !1!f!1!e !1!d!1!c !1!=B!1!A | x [!2!c!1!d] !1!_c!1!A [!2!=c!1!d]2 [!1!A!2!=B]2 | %14
 [!2!G!1!=e]2 [!2!G!1!e]6 | [!2!c!1!_f]4 [!2!c!1!=e]4 | %16
 [!2!c!1!e]!1!d !1!c!1!=B !1!c!1!d !1!e!1!f- | !1!f!1!g !1!a!1!b !1!a!1!g !1!f!1!e | %18
 [!4!B!1!d]!4!B !1!B/!4!B/!1!B/!1!c/ !1!d!1!c !1!d/!1!c/!1!B/!4!B/ | %19
 [!4!B!1!d]!1!A!2!G!1!A [!4!B!1!d]2 !1!A!1!B | [!2!c!1!e]2 !2!c!2!=B !2!c!1!d !1!e!1!f | %21
 !1!f!1!g !1!_a!1!g x !1!e !1!d!1!c | %22
 [!4!=B!1!d]!1!c !1!B!1!A [!4!B!1!d]!1!A !1!B/!1!A/!1!B/!1!c/ | %23
 [!4!=B!1!d]2 [!4!c!1!e]2 [!4!c!1!e]2 [!4!B!1!d]2 | !1!d!1!e!1!f!1!g !1!f!1!=e!1!d[!2!c!1!_e] | %25
[M:7/8] !1!d!1!c!1!d !1!e!1!c !1!d!1!e |[M:4/4] [!4!B!1!d]!1!e!1!f!1!e [!4!B!1!d]!1!c!1!B!1!A | %27
 [!4!B!1!d]!1!A!1!B!1!c !1!d!1!e!1!f!1!d | %28
 x !1!e !1!f/!1!e/!1!d/!1!e/ !1!f!1!e !1!f/!1!e/!1!d/!1!c/ | %29
 x [!2!c!1!d]!1!=B!1!A [!2!c!1!d]!1!A !1!c/!1!B/!1!A/!1!B/ | [!2!c!1!=e]2 [!2!c!1!e]2 !4!G4 | %31
 [!3!C!4!G!2!c!1!=e]8 |] %32
V:4
 [!3!C!4!G]8 | [!3!C!4!G]8 | [!3!D!2!F]8 | [!3!D!2!F]8 | [!3!C!4!G]8 | !4!G4 [!3!F!2!A]4 | !4!G8 | %7
 !4!G4 !3!C4 | [!3!C!4!G]8 | [!3!C!4!G]8 | [!3!D!4!B]8 | [!3!D!2!F]8 | !3!C8 | !4!G4 !4!G2 !4!G2 | %14
 [!3!C!4!G]4 !4!G2 !3!C2 | [!3!C!4!G]4 !4!G2 !3!C2 | [!3!C!4!G]8 | !3!C4 !3!C4 | !2!F8 | %19
 !2!F2 x2 !2!F!2!G x2 | [!3!C!4!G]8 | !3!C4 !2!=E4 | !3!C4 !3!C4 | !2!=E4 !3!C2 !2!E2 | %24
 [!3!C!4!G]7 [!3!C!4!G] |[M:7/8] [!3!C!4!G]4 [!3!C!4!G]3 |[M:4/4] [!3!D!2!F]4 [!3!D!2!F]4 | %27
 [!3!D!2!F]8 | !3!C8 | !4!G4 !4!G4 | !3!C6 !3!C2 | x8 |] %32

